src/status/16/disper-panel.svg

<svg height="16" width="16" viewBox="0 0 4.5155557 4.5155557" xmlns="http://www.w3.org/2000/svg">
 <path d="m 7.252 5 c -0.675 0 -1.252 0.577 -1.252 1.252 l 0 4.496 c 0 0.675 0.577 1.252 1.252 1.252 l 2.748 0 l 0 2 l -3 0 l 0 2 l 8 0 l 0 -2 l -3 0 l 0 -2 l 2.748 0 c 0.675 0 1.252 -0.577 1.252 -1.252 l 0 -4.496 c 0 -0.675 -0.577 -1.252 -1.252 -1.252 l -7.496 0 z m 1.748 2 l 4 0 c 0.554 0 1 0.446 1 1 l 0 1 c 0 0.554 -0.446 1 -1 1 l -4 0 c -0.554 0 -1 -0.446 -1 -1 l 0 -1 c 0 -0.554 0.446 -1 1 -1 z" style="fill:#2e3440;fill-opacity:1;color:#000;stroke-width:3.543" transform="matrix(0.28222 0 0 0.28222 0 0)"/>
 <path d="M 1.2519531,0 C 0.5767505,0 0,0.57675012 0,1.2519531 V 5.7480469 C 0,6.4232499 0.5767505,7 1.2519531,7 H 4 V 9 H 1 v 2 H 5 L 5,6.2519531 C 5,5.7883259 5.1411268,5.3579643 5.3808594,5 H 3 C 2.446,5 2,4.5539999 2,4 V 3 C 2,2.446 2.446,2 3,2 h 4 c 0.5539999,0 1,0.446 1,1 v 1 h 2 V 1.2519531 C 10,0.57675012 9.4232499,0 8.7480469,0 Z" style="fill:#2e3440;fill-opacity:1;color:#000;stroke-width:3.543" transform="matrix(0.28222 0 0 0.28222 0 0)"/>
</svg>

<svg width="16" height="16" viewBox="0 0 4.5156 4.5156" xmlns="http://www.w3.org/2000/svg">
 <path transform="scale(.28222)" d="m7.252 5c-0.675 0-1.252 0.577-1.252 1.252v4.496c0 0.675 0.577 1.252 1.252 1.252h2.748v2h-3v2h8v-2h-3v-2h2.748c0.675 0 1.252-0.577 1.252-1.252v-4.496c0-0.675-0.577-1.252-1.252-1.252h-7.496zm1.748 2h4c0.554 0 1 0.446 1 1v1c0 0.554-0.446 1-1 1h-4c-0.554 0-1-0.446-1-1v-1c0-0.554 0.446-1 1-1z" fill="#2e3440" stroke-width="3.543"/>
 <path transform="scale(.28222)" d="m1.252 0c-0.6752 0-1.252 0.57675-1.252 1.252v4.4961c0 0.6752 0.57675 1.252 1.252 1.252h2.748v2h-3v2h4v-4.748c0-0.46363 0.14113-0.89399 0.38086-1.252h-2.3809c-0.554 0-1-0.446-1-1v-1c0-0.554 0.446-1 1-1h4c0.554 0 1 0.446 1 1v1h2v-2.748c0-0.6752-0.57675-1.252-1.252-1.252z" fill="#2e3440" stroke-width="3.543"/>
</svg>
